X: 3849
T: Black Mountain, The
R: mazurka
M: 3/4
K: Dmajor
|:F>G|A>A A>d A>d|A2 F2 F>A|c>c c>B A>G|(3BcB A2 F>G|
A>A A>d A>d|(3ABA- A>F (3FGA|1 c>c c>B A<G|F2 F2:|2 c2 c>B A<F|D2-D2||
|:(3FGA|B2 B>A (3cBA|G<F F2 F>G|A>A A>G F>E|G<F F2 (3FGA|
B>A B>^A B>=A|(3GAG F2 (3EFG|A2 A>G F<E|1 G<F F2:|2 D2- D2||

